16x16/apps/org.gnome.design.IconLibrary.svg

<svg height="16" width="16" xmlns="http://www.w3.org/2000/svg"><path d="m1 3v12h13.846c.64 0 1.154-.51 1.154-1.143v-9.714c0-.634-.514-1.143-1.154-1.143zm0 0" fill="#f4f4f7"/><path d="m2 14h2v2l-1-.75-1 .75zm0 0" fill="#fa5e4a"/><path d="m1 0h1v14h-1zm0 0" fill="#464559"/><path d="m9 7v7h6.125c.485 0 .875-.426.875-.955v-6.045zm0 0" fill="#5c5c6c"/><path d="m2 14h7v-7h-7zm7-7v-7h6.125c.485 0 .875.426.875.955v6.045zm0 0" fill="#ccc"/><path d="m2 0h7v7h-7zm0 0" fill="#5c5c6c"/><path d="m7 2.846c0-.467-.362-.846-.808-.846a.8.8 0 0 0 -.692.41.8.8 0 0 0 -.692-.41c-.446 0-.808.379-.808.846 0 .243.098.462.255.617l1.225 1.237 1.265-1.237a.862.862 0 0 0 .255-.617" fill="#dedcd9"/><path d="m12.5 2c-.835 0-1.5.689-1.5 1.5s.665 1.5 1.5 1.5 1.5-.689 1.5-1.5-.665-1.5-1.5-1.5zm0 .9c.323 0 .6.249.6.6s-.277.6-.6.6a.592.592 0 0 1 -.6-.6c0-.351.277-.6.6-.6z" fill="#5c5c6c"/><path d="m12.64 8.896 1.54 1.61-1.54 1.608" fill="none" stroke="#dedcd9" stroke-linecap="round" stroke-width="1.049055"/><path d="m11.352 10a.368.5 0 1 0 0 1h2.4a.368.5 0 1 0 0-1z" fill="#dedcd9"/><path d="m4.25 8.5a.75.75 0 1 1 0 1.5.75.75 0 0 1 0-1.5zm2.5 0a.75.75 0 1 1 0 1.5.75.75 0 0 1 0-1.5zm-2.5 2.5a.75.75 0 1 1 0 1.5.75.75 0 0 1 0-1.5zm2.5 0a.75.75 0 1 1 0 1.5.75.75 0 0 1 0-1.5z" fill="#5c5c6c"/></svg>

<svg height="16" width="16" xmlns="http://www.w3.org/2000/svg">
    <path d="M1 3v12h13.846c.64 0 1.154-.51 1.154-1.143V4.143C16 3.509 15.486 3 14.846 3zm0 0" fill="#f4f4f7"/>
    <path d="M2 14h2v2l-1-.75L2 16zm0 0" fill="#fa5e4a"/>
    <path d="M1 0h1v14H1zm0 0" fill="#464559"/>
    <path d="M9 7v7h6.125c.485 0 .875-.426.875-.955V7zm0 0" fill="#5c5c6c"/>
    <path d="M2 14h7V7H2zm7-7V0h6.125c.485 0 .875.426.875.955V7zm0 0" fill="#ccc"/>
    <path d="M2 0h7v7H2zm0 0" fill="#5c5c6c"/>
    <path d="M7 2.846C7 2.379 6.638 2 6.192 2a.8.8 0 0 0-.692.41.8.8 0 0 0-.692-.41C4.362 2 4 2.379 4 2.846c0 .243.098.462.255.617L5.48 4.7l1.265-1.237A.862.862 0 0 0 7 2.846" fill="#dedcd9"/>
    <path d="M12.5 2c-.835 0-1.5.689-1.5 1.5S11.665 5 12.5 5 14 4.311 14 3.5 13.335 2 12.5 2zm0 .9c.323 0 .6.249.6.6s-.277.6-.6.6a.592.592 0 0 1-.6-.6c0-.351.277-.6.6-.6z" fill="#5c5c6c"/>
    <path d="m12.64 8.896 1.54 1.61-1.54 1.608" fill="none" stroke="#dedcd9" stroke-linecap="round" stroke-width="1.049"/>
    <path d="M11.352 10a.368.5 0 1 0 0 1h2.4a.368.5 0 1 0 0-1z" fill="#dedcd9"/>
    <path d="M4.25 8.5a.75.75 0 1 1 0 1.5.75.75 0 0 1 0-1.5zm2.5 0a.75.75 0 1 1 0 1.5.75.75 0 0 1 0-1.5zM4.25 11a.75.75 0 1 1 0 1.5.75.75 0 0 1 0-1.5zm2.5 0a.75.75 0 1 1 0 1.5.75.75 0 0 1 0-1.5z" fill="#5c5c6c"/>
</svg>
